icons/evolvere-blue-folders-flat-vivid-dark-fallback/apps/64/clementine.svg

<?xml version="1.0" encoding="UTF-8" standalone="no"?>
<!-- Created with Inkscape (http://www.inkscape.org/) -->

<svg
   xmlns:dc="http://purl.org/dc/elements/1.1/"
   xmlns:cc="http://creativecommons.org/ns#"
   xmlns:rdf="http://www.w3.org/1999/02/22-rdf-syntax-ns#"
   xmlns:svg="http://www.w3.org/2000/svg"
   xmlns="http://www.w3.org/2000/svg"
   xmlns:xlink="http://www.w3.org/1999/xlink"
   xmlns:sodipodi="http://sodipodi.sourceforge.net/DTD/sodipodi-0.dtd"
   xmlns:inkscape="http://www.inkscape.org/namespaces/inkscape"
   width="64"
   height="64"
   id="svg13094"
   version="1.1"
   inkscape:version="0.91+devel r"
   sodipodi:docname="clementine.svg">
  <sodipodi:namedview
     id="base"
     pagecolor="#ffffff"
     bordercolor="#666666"
     borderopacity="1.0"
     inkscape:pageopacity="0"
     inkscape:pageshadow="2"
     inkscape:zoom="8.0000004"
     inkscape:cx="16.001557"
     inkscape:cy="32.311096"
     inkscape:document-units="px"
     inkscape:current-layer="g3910"
     showgrid="false"
     inkscape:snap-bbox="true"
     inkscape:bbox-paths="true"
     inkscape:bbox-nodes="true"
     inkscape:snap-bbox-edge-midpoints="true"
     inkscape:snap-bbox-midpoints="true"
     inkscape:object-paths="true"
     inkscape:snap-intersection-paths="true"
     inkscape:object-nodes="true"
     inkscape:snap-smooth-nodes="true"
     inkscape:snap-midpoints="true"
     inkscape:snap-object-midpoints="true"
     inkscape:snap-center="true"
     showguides="true"
     inkscape:guide-bbox="true"
     inkscape:window-width="1920"
     inkscape:window-height="1023"
     inkscape:window-x="-10"
     inkscape:window-y="35"
     inkscape:window-maximized="1"
     inkscape:snap-global="false"
     fit-margin-top="0"
     fit-margin-left="0"
     fit-margin-right="0"
     fit-margin-bottom="0"
     showborder="true"
     inkscape:showpageshadow="false"
     inkscape:snap-page="true">
    <inkscape:grid
       originy="18px"
       originx="1.6362304e-08px"
       snapvisiblegridlinesonly="true"
       enabled="true"
       visible="true"
       empspacing="5"
       id="grid3075"
       type="xygrid" />
  </sodipodi:namedview>
  <defs
     id="defs13096" />
  <metadata
     id="metadata13099">
    <rdf:RDF>
      <cc:Work
         rdf:about="">
        <dc:format>image/svg+xml</dc:format>
        <dc:type
           rdf:resource="http://purl.org/dc/dcmitype/StillImage" />
        <dc:title></dc:title>
      </cc:Work>
    </rdf:RDF>
  </metadata>
  <path
     inkscape:connector-curvature="0"
     style="color:#000000;fill:#fa8219;fill-opacity:1;fill-rule:nonzero;stroke:none;stroke-width:2.28571415;marker:none;visibility:visible;display:inline;overflow:visible;enable-background:accumulate"
     d="m 0,4 0,30 0,28 2,2 30,0 30,0 2,-2 L 64,34 64,4 32,4 0,4 z"
     id="path3983" />
  <path
     id="path6502"
     d="M 2 0 L 0 1 L 0 4 L 32 4 L 64 4 L 64 1 L 62 0 L 32 0 L 2 0 z "
     style="color:#000000;fill:#fbcb3f;fill-opacity:1;fill-rule:nonzero;stroke:none;marker:none;visibility:visible;display:inline;overflow:visible;enable-background:accumulate" />
  <path
     style="color:#000000;fill:#fff0be;fill-opacity:0.79785329;fill-rule:nonzero;stroke:none;stroke-width:1;marker:none;visibility:visible;display:inline;overflow:visible;enable-background:accumulate"
     d="M 28.21875 4.03125 C 23.209996 3.9217147 18.560547 4.7631357 14.8125 6.75 C -0.12101238 14.666353 2.969727 37.357982 30.0625 53 C 43.465245 60.738079 55.410949 62.526443 64 60.3125 L 64 51.8125 C 61.626035 52.593813 58.482963 52.643189 54.125 52.0625 C 53.976335 52.0548 53.822839 52.02226 53.6875 51.96875 C 52.738079 51.593365 52.148079 50.255984 51.34375 49.4375 C 49.454175 48.414301 47.924222 33.621807 47.15625 27.25 L 47.625 26.8125 L 48.6875 27.09375 C 52.983027 30.261559 59.5686 34.742522 64 38.1875 L 64 36.21875 C 59.408309 33.283374 53.284012 29.070613 49.15625 26.28125 L 48.65625 25.5 L 49.0625 25 C 54.30542 24.68136 61.271109 23.634011 64 24.40625 L 64 19 C 60.930833 16.234308 57.527415 13.728889 53.9375 11.65625 C 45.945622 7.0421378 36.566674 4.2138088 28.21875 4.03125 z M 31.53125 6.65625 C 34.295537 6.5665576 37.199078 7.1912439 41.28125 8.53125 C 42.040482 8.7483282 42.343354 9.3882976 42.875 9.84375 C 44.026043 10.483307 44.584422 17.633832 45.0625 22.46875 L 44.59375 22.84375 L 43.53125 22.53125 C 37.092391 17.794565 25.583578 10.245312 26.375 9.125 C 26.332945 8.7036157 25.667544 7.8465612 26.46875 7.59375 C 28.242518 7.0245452 29.872678 6.7100654 31.53125 6.65625 z M 20.125 9.96875 C 20.758671 9.8383458 21.852578 10.327378 22.6875 10.46875 C 24.063036 10.345454 36.019205 18.624861 42.9375 23.3125 L 43.46875 24.09375 L 42.96875 24.59375 C 35.558192 24.989438 20.515695 26.992021 18.34375 24.84375 C 17.781192 24.540103 16.802039 24.227886 16.03125 23.78125 C 15.568792 23.513279 15.144308 23.173321 15 22.75 C 12.644356 15.971482 14.147105 13.010706 19.875 10.0625 C 19.945096 10.016757 20.034476 9.9873792 20.125 9.96875 z M 48.28125 11.28125 C 48.45551 11.295475 48.643034 11.342954 48.875 11.4375 C 54.727276 13.808634 57.771701 15.875177 62 20.25 C 62.572176 20.795844 62.122885 21.056945 62.125 21.46875 C 62.593901 22.349847 53.756613 23.24367 48.0625 23.90625 L 47.09375 23.5625 L 46.5 22.78125 C 46.40456 18.180597 45.307912 11.203229 47.125 11.5 C 47.438014 11.456687 47.75847 11.238574 48.28125 11.28125 z M 43.9375 25.75 L 45 26.09375 L 45.625 26.9375 C 45.66752 33.079712 47.310278 47.147782 44.25 47.5 C 43.496837 47.952438 42.740479 49.505627 41.03125 49.03125 C 36.815307 47.878653 33.321129 46.55207 30.34375 44.8125 C 25.384283 41.914872 22.089056 38.061059 19.03125 32.53125 C 18.362809 31.531079 19.894864 30.904548 20.40625 30.125 C 20.405483 28.602577 36.698492 26.693354 43.9375 25.75 z "
     id="path4012" />
  <path
     inkscape:connector-curvature="0"
     style="fill:#fba82d;fill-opacity:1"
     id="path3028"
     d="M 64,6 62,4 64,3 z" />
  <g
     transform="translate(-0.62500009,0.082283)"
     inkscape:export-ydpi="90"
     inkscape:export-xdpi="90"
     inkscape:export-filename="folder.png"
     id="g3043" />
  <g
     style="fill:#ffffff"
     inkscape:label="#g3701"
     transform="matrix(1.0385892,0,0,1.0385892,1214.7222,1878.8121)"
     id="scalable" />
  <path
     id="path4298"
     d="M 0,3 0,6 2,4 Z"
     style="fill:#fbd73f;fill-opacity:1;fill-rule:nonzero"
     inkscape:connector-curvature="0"
     sodipodi:nodetypes="cccc" />
  <g
     transform="matrix(0.58495233,0,0,0.58495233,-5.8582128,27.663114)"
     id="g3910">
    <path
       style="color:#000000;display:inline;overflow:visible;visibility:visible;fill:#a20000;fill-opacity:0.15921289;fill-rule:nonzero;stroke:none;stroke-width:0.75397611;marker:none;enable-background:accumulate"
       d="M 10.246094 45.15625 A 7.3418207 6.0492468 45 0 0 8.7011719 46.207031 A 7.3418207 6.0492468 45 0 0 9.6152344 55.675781 A 7.3418207 6.0492468 45 0 0 19.083984 56.589844 A 7.3418207 6.0492468 45 0 0 18.169922 47.121094 A 7.3418207 6.0492468 45 0 0 15.835938 45.457031 A 5.1702964 5.1702964 0 0 1 17.976562 49.640625 A 5.1702964 5.1702964 0 0 1 12.806641 54.810547 A 5.1702964 5.1702964 0 0 1 7.6367188 49.640625 A 5.1702964 5.1702964 0 0 1 10.246094 45.15625 z "
       transform="matrix(1.709541,0,0,1.709541,10.014855,-47.291228)"
       id="path3914" />
    <circle
       id="path3912"
       style="color:#000000;display:inline;overflow:visible;visibility:visible;fill:#fffb58;fill-opacity:0.24150271;fill-rule:nonzero;stroke:none;stroke-width:0.41976249;marker:none;enable-background:accumulate"
       cx="29.130188"
       cy="33.93911"
       r="3.710211" />
  </g>
  <use
     height="64"
     width="64"
     transform="matrix(1.5650049,0,0,1.5650049,31.041642,-28.630124)"
     id="use3062"
     xlink:href="#g3910"
     y="0"
     x="0" />
  <use
     height="64"
     width="64"
     transform="matrix(0.90802247,0,0,0.90802247,27.263954,-8.3632029)"
     id="use3064"
     xlink:href="#g3910"
     y="0"
     x="0" />
  <use
     height="64"
     width="64"
     transform="matrix(0.63208985,0,0,0.63208985,9.4421535,-11.44411)"
     id="use3066"
     xlink:href="#g3910"
     y="0"
     x="0" />
  <use
     height="64"
     width="64"
     transform="matrix(0.34301758,0,0,0.34301758,48.283045,3.296359)"
     id="use3068"
     xlink:href="#g3910"
     y="0"
     x="0" />
  <use
     height="64"
     width="64"
     transform="matrix(0.34301758,0,0,0.34301758,51.995355,8.1577179)"
     id="use3070"
     xlink:href="#g3910"
     y="0"
     x="0" />
  <use
     height="64"
     width="64"
     transform="matrix(0.48755372,0,0,0.48755372,43.888617,2.0691141)"
     id="use3072"
     xlink:href="#g3910"
     y="0"
     x="0" />
  <use
     height="64"
     width="64"
     transform="matrix(0.48755372,0,0,0.48755372,0.75510549,14.973812)"
     id="use3074"
     xlink:href="#g3910"
     y="0"
     x="0" />
  <use
     x="0"
     y="0"
     xlink:href="#g3910"
     id="use3060"
     transform="matrix(0.36929688,0,0,0.36929688,16.363326,39.33655)"
     width="64"
     height="64" />
</svg>

<svg xmlns="http://www.w3.org/2000/svg" xmlns:xlink="http://www.w3.org/1999/xlink" viewBox="0 0 64 64"><g color="#000"><path d="m0 4v30 28l2 2h30 30l2-2v-28-30h-32-32" fill="#fa8219"/><path d="m2 0l-2 1v3h32 32v-3l-2-1h-30-30" fill="#fbcb3f"/><path d="m28.22 4.03c-5.01-.11-9.658.732-13.406 2.719-14.934 7.916-11.843 30.608 15.25 46.25 13.403 7.738 25.348 9.526 33.938 7.313v-8.5c-2.374.781-5.517.831-9.875.25-.149-.008-.302-.04-.438-.094-.949-.375-1.539-1.713-2.344-2.531-1.89-1.023-3.42-15.816-4.188-22.19l.469-.438 1.063.281c4.296 3.168 10.881 7.649 15.313 11.09v-1.969c-4.592-2.935-10.716-7.148-14.844-9.938l-.5-.781.406-.5c5.243-.319 12.209-1.366 14.938-.594v-5.406c-3.069-2.766-6.473-5.271-10.06-7.344-7.992-4.614-17.371-7.442-25.719-7.625m3.313 2.625c2.764-.09 5.668.535 9.75 1.875.759.217 1.062.857 1.594 1.313 1.151.64 1.709 7.79 2.188 12.625l-.469.375-1.063-.313c-6.439-4.737-17.948-12.286-17.16-13.406-.042-.421-.707-1.278.094-1.531 1.774-.569 3.404-.884 5.063-.938m-11.406 3.313c.634-.13 1.728.359 2.563.5 1.376-.123 13.332 8.156 20.25 12.844l.531.781-.5.5c-7.411.396-22.453 2.398-24.625.25-.563-.304-1.542-.616-2.313-1.063-.462-.268-.887-.608-1.031-1.031-2.356-6.779-.853-9.739 4.875-12.688.07-.046.159-.075.25-.094m28.16 1.313c.174.014.362.062.594.156 5.852 2.371 8.897 4.438 13.13 8.813.572.546.123.807.125 1.219.469.881-8.368 1.775-14.06 2.438l-.969-.344-.594-.781c-.095-4.601-1.192-11.578.625-11.281.313-.043.633-.261 1.156-.219m-4.344 14.469l1.063.344.625.844c.043 6.142 1.685 20.21-1.375 20.563-.753.452-1.51 2.01-3.219 1.531-4.216-1.153-7.71-2.479-10.688-4.219-4.959-2.898-8.255-6.751-11.313-12.281-.668-1 .864-1.627 1.375-2.406-.001-1.522 16.292-3.432 23.531-4.375" fill="#fff0be" fill-opacity=".798"/></g><path d="m64 6l-2-2 2-1z" fill="#fba82d"/><path d="m0 3v3l2-2" fill="#fbd73f"/><g transform="matrix(.58495 0 0 .58495-5.858 27.663)" id="0" color="#000"><path d="M10.246094 45.15625A7.341821 6.04925 45 0 0 8.701172 46.20703 7.341821 6.04925 45 0 0 9.615234 55.675781 7.341821 6.04925 45 0 0 19.08398 56.58984 7.341821 6.04925 45 0 0 18.16992 47.12109 7.341821 6.04925 45 0 0 15.835938 45.45703 5.170296 5.170296 0 0 1 17.976562 49.640625 5.170296 5.170296 0 0 1 12.806641 54.810547 5.170296 5.170296 0 0 1 7.636719 49.640625 5.170296 5.170296 0 0 1 10.246094 45.15625" transform="matrix(1.70954 0 0 1.70954 10.01-47.29)" fill="#a20000" fill-opacity=".159"/><circle cx="29.13" cy="33.939" r="3.71" fill="#fffb58" fill-opacity=".242"/></g><use height="64" width="64" transform="matrix(1.565 0 0 1.565 31.04-28.63)" xlink:href="#0"/><use height="64" width="64" transform="matrix(.90802 0 0 .90802 27.26-8.363)" xlink:href="#0"/><use height="64" width="64" transform="matrix(.63209 0 0 .63209 9.442-11.444)" xlink:href="#0"/><use height="64" width="64" transform="matrix(.34302 0 0 .34302 48.28 3.296)" xlink:href="#0"/><use height="64" width="64" transform="matrix(.34302 0 0 .34302 51.995 8.158)" xlink:href="#0"/><use height="64" width="64" transform="matrix(.48755 0 0 .48755 43.889 2.069)" xlink:href="#0"/><use height="64" width="64" transform="matrix(.48755 0 0 .48755.755 14.974)" xlink:href="#0"/><use xlink:href="#0" transform="matrix(.3693 0 0 .3693 16.363 39.34)" width="64" height="64"/></svg>
